dist/svgs/douban.svg

<svg xmlns="http://www.w3.org/2000/svg" viewBox="0 0 512 512"><path d="M347 342H165l30 99h123zm-223-57h264V172H124v113zm375 157v57H13v-57h125l-29-100H55V115h403v227h-55l-29 100h125zM26 14h460v58H26V14z"/></svg>

<?xml version="1.0" encoding="UTF-8" standalone="no"?><svg   xmlns:svg="http://www.w3.org/2000/svg"   xmlns="http://www.w3.org/2000/svg"   version="1.1"   width="512"   height="512"   viewBox="0 0 512 512">  <path     d="M347 342H165L195 441H318zM124 285H388V172H124V285zM499 442V499H13V442H138L109 342H55V115H458V342H403L374 442H499zM26 14H486V72H26V14z"     id="douban" /></svg>
